X:1041
T:Reel des \'Eboulements
R:reel
O:Quebec
Z:id:hn-reel-1041
M:C|
L:1/8
K:A
(3efg | aA~A2 cAeA | Bcde fefg | aA~A2 cAeA | fdge aefg |
aA~A2 cAeA | Bcde fefg | agfe fedc | dfec A2 :|
|: ed | cAEA cAec | Bcde f2ed | cAEA cAeA | fdge a2ed |
cAEA cAec | Bcde fefg | agfe fedc | dfec A2 :|
|: AF | EAAB cABA | GABc dB~B2 | GBEB GBEB | GB~B2 A2AF |
EAAB cABA | GABc defg | agfe fedc |1 dfec A2 :|2 defg a2 ||

